src/view/frontend/web/svg/heroicons/solid/lock-closed.svg

<svg viewBox="0 0 20 20" fill="currentColor" xmlns="http://www.w3.org/2000/svg">

<path fill-rule="evenodd" clip-rule="evenodd" d="M5 9V7C5 4.23858 7.23858 2 10 2C12.7614 2 15 4.23858 15 7V9C16.1046 9 17 9.89543 17 11V16C17 17.1046 16.1046 18 15 18H5C3.89543 18 3 17.1046 3 16V11C3 9.89543 3.89543 9 5 9ZM13 7V9H7V7C7 5.34315 8.34315 4 10 4C11.6569 4 13 5.34315 13 7Z" />
</svg>

<svg xmlns="http://www.w3.org/2000/svg" viewBox="0 0 20 20" fill="currentColor">
  <path fill-rule="evenodd" d="M5 9V7a5 5 0 0110 0v2a2 2 0 012 2v5a2 2 0 01-2 2H5a2 2 0 01-2-2v-5a2 2 0 012-2zm8-2v2H7V7a3 3 0 016 0z" clip-rule="evenodd"/>
</svg>
